!!!COM: Haydn, Franz Joseph 
!!!OPR: Symphony in F Major 
!!!OTL: Allegro 
!!!OMV: 1 
!!!SCT: H I:40 
!!!SCA: Thematisch-bibliographisches Werkevererzeichnis (A. van Hoboken) 
!!!YOR: Breitkopf & Härtel Edition 
!!!EED: Frances Bennion 
!!!ENC: Frances Bennion 
!!!CDT: 1732/3/31/-1809/5/31/
!!!OCY: Österreich 
!!!YEC: Copyright (c) 1994, 2000 Center for Computer Assisted Research in the Humanities 
!!!YEM: Rights to all derivative editions reserved. 
!!!YEM: Refer to licensing agreement for further details. 
!!!YEN: United States of America 
**kern	**kern	**kern	**kern	**kern	**kern	**kern	**kern
*k[b-]	*k[b-]	*k[]	*k[]	*k[b-]	*k[b-]	*k[b-]	*k[b-]
*F:	*F:	*F:	*F:	*F:	*F:	*F:	*F:
*clefF	*clefF	*clefF	*clefF	*clefF	*clefF	*clefC3	*clefF4
*M3/4	*M3/4	*M3/4	*M3/4	*M3/4	*M3/4	*M3/4	*M3/4
*tb16	*tb16	*tb16	*tb16	*tb16	*tb16	*tb16	*tb16
=1	=1	=1	=1	=1	=1	=1	=1
2.ff	2.f	[2.cc	[2.c	2.ff	2.f	8f	8FF
.	.	.	.	.	.	8a	8F
.	.	.	.	.	.	8a	8F
.	.	.	.	.	.	8g	8E
.	.	.	.	.	.	8f	8D
.	.	.	.	.	.	8e	8C
=2	=2	=2	=2	=2	=2	=2	=2
2.dd	2.dd	4cc]	4c]	2.ddd	2.dd	8d	8BB-
.	.	.	.	.	.	8dd	8B-
.	.	2r	2r	.	.	8dd	8B-
.	.	.	.	.	.	8cc	8A
.	.	.	.	.	.	8b-	8G
.	.	.	.	.	.	8a	8F
=3	=3	=3	=3	=3	=3	=3	=3
4cc	4cc	2dd	2g	4ccc	4cc	8g	8E
.	.	.	.	.	.	8e	8C
4bb-	4b-	.	.	4bb-	4b-	8f	8D
.	.	.	.	.	.	8g	8E
4aa	8a	4ee	4cc	4aa	8a	8c	8F
.	8cc	.	.	.	8cc	8a	8A
=4	=4	=4	=4	=4	=4	=4	=4
8gg	8.dd	4r	4r	8gg	8.dd	8b-	8B-
16bb-	.	.	.	16bb-	.	8g	8G
16gg	16b-	.	.	16gg	16b-	.	.
4ff	4a	4ee	4cc	4ff	4a	8cc	8c
.	.	.	.	.	.	8b-	8B-
4ee	4g	4dd	4g	4ee	4g	8cc	8c
.	.	.	.	.	.	8c	8C
=5	=5	=5	=5	=5	=5	=5	=5
4ee	4g	4dd	4g	4ee	4g	8f	8F
.	.	.	.	.	.	8c	8C
4ff	4a	4ee	4cc	8ff	8a	8F	8FF
.	.	.	.	8ff	8a	8f	8F
4ff	4a	4r	4r	8ff	8a	8f	8F
.	.	.	.	16ee	16g	8f	8F
.	.	.	.	16ff	16a	.	.
=6	=6	=6	=6	=6	=6	=6	=6
8dd	8b-	2r	2r	8dd	8b-	8f	8F
16cc	16a	.	.	16cc	16a	8f	8F
16dd	16b-	.	.	16dd	16b-	.	.
4cc	4a	.	.	8cc	8a	8f	8F
.	.	.	.	8cc	8a	8f	8F
4r	4r	4gg	4ee	8cc	8a	8f	8F
.	.	.	.	16b-	16g	8f	8F
.	.	.	.	16cc	16a	.	.
=7	=7	=7	=7	=7	=7	=7	=7
2r	2r	4ff	4dd	8b-	8g	8f	8F
.	.	.	.	16a	16f	8f	8F
.	.	.	.	16b-	16g	.	.
.	.	4ee	4cc	8a	8f	8f	8F
.	.	.	.	8ff	8a	8f	8F
4ff	4a	4r	4r	8ff	8a	8f	8F
.	.	.	.	16ee	16g	8f	8F
.	.	.	.	16ff	16a	.	.
=8	=8	=8	=8	=8	=8	=8	=8
8dd	8b-	2r	2r	8dd	8b-	8f	8F
16cc	16a	.	.	16cc	16a	8f	8F
16dd	16b-	.	.	16dd	16b-	.	.
4cc	4a	.	.	8cc	8a	8f	8F
.	.	.	.	8cc	8a	8f	8F
4r	4r	4gg	4ee	8cc	8a	8f	8F
.	.	.	.	16b-	16g	8f	8F
.	.	.	.	16cc	16a	.	.
=9	=9	=9	=9	=9	=9	=9	=9
2.r	2.r	4ff	4dd	8b-	8g	8f	8F
.	.	.	.	16a	16f	8f	8F
.	.	.	.	16b-	16g	.	.
.	.	4ee	4cc	8a	8f	8f	8F
.	.	.	.	8f	8A	8F	8F
.	.	4r	4r	8f	8A	8F	8F
.	.	.	.	16e	16G	8F	8F
.	.	.	.	16f	16A	.	.
=10	=10	=10	=10	=10	=10	=10	=10
2.dd	2.b-	[2.cc	[2.c	4.d	4.B-	8F	8F
.	.	.	.	.	.	8F	8F
.	.	.	.	.	.	8F	8F
.	.	.	.	8f	8d	8F	8F
.	.	.	.	8f	8d	8F	8F
.	.	.	.	16e	16c	8F	8F
.	.	.	.	16f	16B-	.	.
=11	=11	=11	=11	=11	=11	=11	=11
2.cc	2.a	2.cc]	2.c]	4.c	4.A	8F	8F
.	.	.	.	.	.	8F	8F
.	.	.	.	.	.	8F	8F
.	.	.	.	8f	8A	8F	8F
.	.	.	.	8a	8A	8F	8F
.	.	.	.	8cc	8A	8F	8F
=12	=12	=12	=12	=12	=12	=12	=12
2cc	2.g	2.g	2.g	2cc	4.G	8C	8E
.	.	.	.	.	.	8C	8E
.	.	.	.	.	.	8C	8E
.	.	.	.	.	8G	8C	8E
4b-	.	.	.	4b-	8G	8C	8E
.	.	.	.	.	8G	8C	8E
=13	=13	=13	=13	=13	=13	=13	=13
4b-	4g	4cc	4c	4b-	4G	4.C	8F
.	.	.	.	.	.	.	8C
4a	4f	2r	2r	8a	8A	.	8FF
.	.	.	.	8f	8A	8F	8FF
4r	4r	.	.	8f	8A	8F	8FF
.	.	.	.	16e	16G	8F	8FF
.	.	.	.	16f	16A	.	.
=14	=14	=14	=14	=14	=14	=14	=14
2.r	2.r	2.r	2.r	4.d	4.B-	8F	8FF
.	.	.	.	.	.	8F	8FF
.	.	.	.	.	.	8F	8FF
.	.	.	.	8f	8d	8F	8FF
.	.	.	.	8f	8d	8F	8FF
.	.	.	.	16e	16c	8F	8FF
.	.	.	.	16f	16B-	.	.
=15	=15	=15	=15	=15	=15	=15	=15
2r	2r	2.r	2.r	4.c	4.A	8F	8FF
.	.	.	.	.	.	8f	8F
.	.	.	.	.	.	8f	8F
.	.	.	.	16a	16f	8f	8F
.	.	.	.	16b-	16g	.	.
4cc	4a	.	.	8cc	8a	8d	8F#
.	.	.	.	8cc	8a	8d	8F#
=16	=16	=16	=16	=16	=16	=16	=16
4cc	4a	2r	2r	4cc	4a	2d	8G
.	.	.	.	.	.	.	8G
8b	4g	.	.	8b	4g	.	8G
8gg	.	.	.	8gg	.	.	8G
8g	4g	4dd	4g	8g	4g	4c	8E
8b-	.	.	.	8b-	.	.	8E
=17	=17	=17	=17	=17	=17	=17	=17
4b-	4g	4dd	4g	4b-	4g	2c	8F
.	.	.	.	.	.	.	8F
8a	8f	4ee	4cc	8a	8f	.	8F
8ff	8ff	.	.	8ff	8ff	.	8F
8cc	8cc	4cc	4c	8cc	8cc	4f	8A
8cc#	8cc#	.	.	8cc#	8cc#	.	8A
=18	=18	=18	=18	=18	=18	=18	=18
8dd	8dd	4cc	4c	8dd	8dd	8f	8B-
8ff#	8ff#	.	.	8ff#	8ff#	8d	8B-
8gg	8gg	2r	2r	8gg	8gg	8d	8B-
8bb-	8bb-	.	.	8bb-	8bb-	8d	8B-
8dd	8dd	.	.	8dd	8dd	8d	8B
8gg	8gg	.	.	8gg	8gg	8d	8B
=19	=19	=19	=19	=19	=19	=19	=19
2ee	2ee	4g	4g	2ee	2ee	4c	8c
.	.	.	.	.	.	.	16c
.	.	.	.	.	.	.	16B
.	.	2r	2r	.	.	8r	8c
.	.	.	.	.	.	8c	8C
4r	4r	.	.	4r	4r	8e	8E
.	.	.	.	.	.	8g	8G
=20	=20	=20	=20	=20	=20	=20	=20
2.gg	8r	2.r	2.r	2.gg	8r	8c	8C
.	8g	.	.	.	8g	8e	8e
.	8g	.	.	.	8g	8e	8e
.	8f	.	.	.	8f	8d	8d
.	8e	.	.	.	8e	8c	8c
.	8d	.	.	.	8d	8B	8B
=21	=21	=21	=21	=21	=21	=21	=21
2.ccc	8c	2.g	2.g	2.ccc	8c	8A	8A
.	8cc	.	.	.	8cc	8a	8A
.	8cc	.	.	.	8cc	8a	8A
.	8b	.	.	.	8b	8g	8G
.	8a	.	.	.	8a	8f	8F
.	8g	.	.	.	8g	8e	8E
=22	=22	=22	=22	=22	=22	=22	=22
2.ff	8f	2cc	2c	2.ff	8f	8d	8BB
.	8ff	.	.	.	8ff	8dd	8d
.	8ff	.	.	.	8ff	8dd	8d
.	8ee	.	.	.	8ee	8cc	8c
.	8dd	4r	4r	.	8dd	8b	8B
.	8cc	.	.	.	8cc	8a	8A
=23	=23	=23	=23	=23	=23	=23	=23
2ddd	8b	2r	2r	2ddd	8b	8g	8G
.	8cc	.	.	.	8cc	8a	8A
.	8dd	.	.	.	8dd	8b	8B
.	8b	.	.	.	8b	8g	8G
4ff	8cc	4dd	4dd	4ff	8cc	8a	8A
.	8dd	.	.	.	8dd	8b	8B
=24	=24	=24	=24	=24	=24	=24	=24
4ff	4dd	2dd	2g	4ff	4dd	8cc	8c
.	.	.	.	.	.	8g	8G
8ee	8cc	.	.	8ee	8cc	4c	8C
8gg	8gg	.	.	8gg	8gg	.	8e
8gg	8gg	4r	4r	8gg	8gg	4r	8e
8gg	8gg	.	.	8gg	8gg	.	8e
=25	=25	=25	=25	=25	=25	=25	=25
8ff	8ff	[2.dd	2.dd	16ff	16ff	[2.g	8d
.	.	.	.	16gg	16gg	.	.
8ee	8ee	.	.	16ee	16ee	.	8c
.	.	.	.	16ff	16ff	.	.
8dd	8dd	.	.	16dd	16dd	.	8B
.	.	.	.	16ee	16ee	.	.
8cc	8cc	.	.	16cc	16cc	.	8A
.	.	.	.	16dd	16dd	.	.
16b	16b	.	.	16b	16b	.	8G
16dd	16dd	.	.	16dd	16dd	.	.
16ee	16ee	.	.	16ee	16ee	.	8B
16ff	16ff	.	.	16ff	16ff	.	.
=26	=26	=26	=26	=26	=26	=26	=26
4ff	4ff	4dd]	4g	4ff	4ff	8g]	8c
.	.	.	.	.	.	8b	8G
8ee	8ee	2r	2r	8ee	8ee	4cc	8C
8gg	8gg	.	.	8gg	8gg	.	8e
8gg	8gg	.	.	8gg	8gg	4r	8e
8gg	8gg	.	.	8gg	8gg	.	8e
=27	=27	=27	=27	=27	=27	=27	=27
8ff	8ff	[2.dd	2.dd	16ff	16ff	[2.g	8d
.	.	.	.	16gg	16gg	.	.
8ee	8ee	.	.	16ee	16ee	.	8c
.	.	.	.	16ff	16ff	.	.
8dd	8dd	.	.	16dd	16dd	.	8B
.	.	.	.	16ee	16ee	.	.
8cc	8cc	.	.	16cc	16cc	.	8A
.	.	.	.	16dd	16dd	.	.
16b	16b	.	.	16b	16b	.	8G
16dd	16dd	.	.	16dd	16dd	.	.
16ee	16ee	.	.	16ee	16ee	.	8B
16ff	16ff	.	.	16ff	16ff	.	.
=28	=28	=28	=28	=28	=28	=28	=28
4ff	4ff	4dd]	4g	4ff	4ff	8g]	8c
.	.	.	.	.	.	8b	8G
8ee	8ee	2r	2r	8ee	8ee	4cc	8C
8gg	8gg	.	.	8gg	8gg	.	8E
8gg	8gg	.	.	8gg	8gg	4c	8E
16ff	16ff	.	.	16ff	16ff	.	8E
16gg	16gg	.	.	16gg	16gg	.	.
=29	=29	=29	=29	=29	=29	=29	=29
8aa	8aa	4ee	4cc	8aa	8aa	4c	8F
8a	8a	.	.	8a	8a	.	8F
8a	8a	2r	2r	16a	16a	8r	8F
.	.	.	.	16b-	16b-	.	.
8g	8g	.	.	16g	16g	8A	8F
.	.	.	.	16a	16a	.	.
8f	8f	.	.	16f	16f	8A	8F
.	.	.	.	16g	16g	.	.
8e	8e	.	.	16e	16e	8A	8F
.	.	.	.	16f	16f	.	.
=30	=30	=30	=30	=30	=30	=30	=30
8d	8d	4ee	4cc	8d	8d	8A	8F
8aa	8aa	.	.	8aa	8aa	8A	8F
8aa	8aa	2r	2r	16aa	16aa	8A	8F
.	.	.	.	16bb-	16bb-	.	.
8gg	8gg	.	.	16gg	16gg	8A	8F
.	.	.	.	16aa	16aa	.	.
8ff	8ff	.	.	16ff	16ff	8A	8F
.	.	.	.	16gg	16gg	.	.
8ee	8ee	.	.	16ee	16ee	8A	8F
.	.	.	.	16ff	16ff	.	.
=31	=31	=31	=31	=31	=31	=31	=31
8dd	8dd	4ee	4cc	8dd	8dd	8A	8F
8a	8a	.	.	8a	8a	8A	8F
8a	8a	2r	2r	16a	16a	8A	8F
.	.	.	.	16b-	16b-	.	.
8g	8g	.	.	16g	16g	8A	8F
.	.	.	.	16a	16a	.	.
8f	8f	.	.	16f	16f	8A	8F
.	.	.	.	16g	16g	.	.
8e	8e	.	.	16e	16e	8A	8F
.	.	.	.	16f	16f	.	.
=32	=32	=32	=32	=32	=32	=32	=32
4d	4d	4ee	4e	4d	4d	8A	8F#
.	.	.	.	.	.	8d	8F#
2r	2r	2r	2r	4aa	4cc	8d	8F#
.	.	.	.	.	.	8d	8F#
.	.	.	.	4aa	4cc	8d	8F#
.	.	.	.	.	.	8d	8F#
=33	=33	=33	=33	=33	=33	=33	=33
2.r	2.r	2.r	2.r	[2.aa	[2.cc	4d	4F#
.	.	.	.	.	.	2r	2r
=34	=34	=34	=34	=34	=34	=34	=34
2.r	2.r	2.r	2.r	2aa]	2cc]	2.r	2.r
.	.	.	.	4cc	4a	.	.
=35	=35	=35	=35	=35	=35	=35	=35
2.r	2.r	2.r	2.r	2.cc	[2.d	[2.G	2.G
=36	=36	=36	=36	=36	=36	=36	=36
2.r	2.r	2.r	2.r	4b	4d]	4G]	4GG
.	.	.	.	2r	2r	2r	2r
=37	=37	=37	=37	=37	=37	=37	=37
4cc	4e	4dd	4g	4G 4cc 4e	4G 4e 4cc	4C 4e 4G	4C
2r	2r	2r	2r	16cc	16cc	2r	2r
.	.	.	.	16dd	16dd	.	.
.	.	.	.	16cc	16cc	.	.
.	.	.	.	16b	16b	.	.
.	.	.	.	16cc	16cc	.	.
.	.	.	.	16g	16g	.	.
.	.	.	.	16a	16a	.	.
.	.	.	.	16b	16b	.	.
=38	=38	=38	=38	=38	=38	=38	=38
4cc	4e	4dd	4g	4cc	4cc	4C 4e 4G	4C
2r	2r	2r	2r	16cc	16cc	2r	2r
.	.	.	.	16dd	16dd	.	.
.	.	.	.	16cc	16cc	.	.
.	.	.	.	16b	16b	.	.
.	.	.	.	16cc	16cc	.	.
.	.	.	.	16g	16g	.	.
.	.	.	.	16a	16a	.	.
.	.	.	.	16b	16b	.	.
=39	=39	=39	=39	=39	=39	=39	=39
4cc	4e	4g	4g	16cc	16cc	16cc	16c
.	.	.	.	16g	16g	16g	16G
.	.	.	.	16a	16a	16a	16A
.	.	.	.	16b	16b	16b	16B
4cc	4e	4g	4g	16cc	16cc	16cc	16c
.	.	.	.	16g	16g	16g	16G
.	.	.	.	16a	16a	16a	16A
.	.	.	.	16b	16b	16b	16B
4cc	4e	4g	4g	16cc	16cc	16cc	16c
.	.	.	.	16g	16g	16g	16G
.	.	.	.	16a	16a	16a	16A
.	.	.	.	16b	16b	16b	16B
=40	=40	=40	=40	=40	=40	=40	=40
4cc	4e	4g	4g	16cc	16cc	4cc	4c
.	.	.	.	16b	16b	.	.
.	.	.	.	16cc	16cc	.	.
.	.	.	.	16dd	16dd	.	.
4ee	4e	2r	2r	16ee	16ee	4ee	4e
.	.	.	.	16dd	16dd	.	.
.	.	.	.	16ee	16ee	.	.
.	.	.	.	16ff	16ff	.	.
4gg	4g	.	.	4gg	4gg	4g	4g
=41	=41	=41	=41	=41	=41	=41	=41
4aa	4aa	2.r	2.r	8f	8f	4f	4F
.	.	.	.	8aa	8aa	.	.
4ff	4ff	.	.	8d	8d	4d	4D
.	.	.	.	8ff	8ff	.	.
4dd	4dd	.	.	8B	8B	4B	4BB
.	.	.	.	8dd	8dd	.	.
=42	=42	=42	=42	=42	=42	=42	=42
4b	4b	4r	4r	8G	8G	4G	4GG
.	.	.	.	8b	8b	.	.
4bb	4bb	4dd	4dd	8d	8d	4d	4F
.	.	.	.	8bb	8bb	.	.
4ccc	4ccc	4dd	4g	8ccc	8ccc	4g	4E
.	.	.	.	16gg	16gg	.	.
.	.	.	.	16ccc	16ccc	.	.
=43	=43	=43	=43	=43	=43	=43	=43
8aa	8aa	4ee	4cc	8aa	8aa	8f	8F
16gg	16gg	.	.	16gg	16gg	16e	8F
16ff	16ff	.	.	16ff	16ff	16d	.
4ee	4ee	4dd	4dd	4ee	4ee	4c	8G
.	.	.	.	.	.	.	8G
4dd	4dd	4dd	4dd	4dd	4dd	4B	8GG
.	.	.	.	.	.	.	8GG
=44	=44	=44	=44	=44	=44	=44	=44
4aa	4aa	4ee	4cc	8aa	8aa	4f	4F
.	.	.	.	8f	8f	.	.
4bb	4bb	4dd	4dd	8d	8d	8f	4D
.	.	.	.	8bb	8bb	16e	.
.	.	.	.	.	.	16f	.
4ccc	4ccc	4dd	4g	8ccc	8ccc	4g	4E
.	.	.	.	16gg	16gg	.	.
.	.	.	.	16ccc	16ccc	.	.
=45	=45	=45	=45	=45	=45	=45	=45
8aa	8aa	4ee	4cc	8aa	8aa	8f	8F
16gg	16gg	.	.	16gg	16gg	16e	8F
16ff	16ff	.	.	16ff	16ff	16d	.
4ee	4ee	4dd	4dd	4ee	4ee	4c	8G
.	.	.	.	.	.	.	8G
4dd	4dd	4dd	4dd	4dd	4dd	4B	8GG
.	.	.	.	.	.	.	8GG
=46	=46	=46	=46	=46	=46	=46	=46
4cc	4cc	[2.g	[2.g	4cc	4cc	4c	8C
.	.	.	.	.	.	.	8C
8r	8r	.	.	2r	8r	8r	8C
8gg	8ee	.	.	.	8g	8e	8C
8gg	8ee	.	.	.	8g	8e	8C
16ff	16dd	.	.	.	16f	16d	8C
16gg	16ee	.	.	.	16g	16e	.
=47	=47	=47	=47	=47	=47	=47	=47
4aa	4ff	2.g_	2.g_	4.r	4a	4f	8C
.	.	.	.	.	.	.	8C
4ff	4a	.	.	.	4f	8A	8C
.	.	.	.	8bb	.	16f	8C
.	.	.	.	.	.	16e	.
4r	4r	.	.	8bb	4ff	8d	8C
.	.	.	.	16aa	.	16c	8C
.	.	.	.	16bb	.	16d	.
=48	=48	=48	=48	=48	=48	=48	=48
4.r	4.r	2.g_	2.g_	4ccc	4.ee	4.e	8C
.	.	.	.	.	.	.	8C
.	.	.	.	8gg	.	.	8C
8gg	8ee	.	.	4.r	8g	8e	8C
8gg	8ee	.	.	.	8g	8e	8C
16ff	16dd	.	.	.	16f	16d	8C
16gg	16ee	.	.	.	16g	16e	.
=49	=49	=49	=49	=49	=49	=49	=49
4aa	4ff	2.g_	2.g_	4.r	4a	4f	8C
.	.	.	.	.	.	.	8C
4ff	4a	.	.	.	4f	8A	8C
.	.	.	.	8bb	.	16f	8C
.	.	.	.	.	.	16e	.
4ff	4b	.	.	8bb	4ff	8d	8C
.	.	.	.	16aa	.	16c	8C
.	.	.	.	16bb	.	16d	.
=50	=50	=50	=50	=50	=50	=50	=50
4ee	4cc	4g]	4g]	4ccc	4ee	4e	8C
.	.	.	.	.	.	.	8E
4cc	4e	4g	4g	4e 4cc	4cc 4e	4e	8G
.	.	.	.	.	.	.	8c
4cc	4e	4g	4g	4e 4cc	4cc 4e	4G	8G
.	.	.	.	.	.	.	8E
=51	=51	=51	=51	=51	=51	=51	=51
4cc	4e	4g	4g	4cc 4e	4cc 4e	4G	8C
.	.	.	.	.	.	.	8c
2r	2r	2r	2r	2r	2r	2r	8c
.	.	.	.	.	.	.	8B-
.	.	.	.	.	.	.	8A
.	.	.	.	.	.	.	8G
=52	=52	=52	=52	=52	=52	=52	=52
2.r	2.r	2.r	2.r	8r	2.r	2.r	4F#
.	.	.	.	8ddd	.	.	.
.	.	.	.	8ddd	.	.	2r
.	.	.	.	8ccc	.	.	.
.	.	.	.	8bb-	.	.	.
.	.	.	.	8aa	.	.	.
=53	=53	=53	=53	=53	=53	=53	=53
2.gg	8r	2.r	2.r	2.gg	8r	8r	8r
.	8b-	.	.	.	8b-	8g	8G
.	8b-	.	.	.	8b-	8g	8G
.	8a	.	.	.	8a	8f	8F
.	8g	.	.	.	8g	8e-	8E-
.	8f	.	.	.	8f	8d	8D
=54	=54	=54	=54	=54	=54	=54	=54
2.ee-	8e-	2.r	2.r	2.ee-	8e-	8c	8C
.	8ee-	.	.	.	8ee-	8cc	8c
.	8ee-	.	.	.	8ee-	8cc	8c
.	8dd	.	.	.	8dd	8b-	8B-
.	8cc	.	.	.	8cc	8a	8A
.	8b-	.	.	.	8b-	8g	8G
=55	=55	=55	=55	=55	=55	=55	=55
4dd	8a	2.r	2.r	4dd	8a	8f#	8F#
.	8f#	.	.	.	8f#	8d	8D
4ccc	8g	.	.	4ccc	8g	8e	8E
.	8a	.	.	.	8a	8f#	8F#
4bb-	8d	.	.	4bb-	8d	8g	8G
.	8dd	.	.	.	8dd	8b-	8B-
=56	=56	=56	=56	=56	=56	=56	=56
4aa	4cc	2.r	2.r	4aa	4cc	8cc	8c
.	.	.	.	.	.	16b-	16B-
.	.	.	.	.	.	16cc	16c
4gg	4b-	.	.	4gg	4b-	8dd	8d
.	.	.	.	.	.	8cc	8c
4ff#	4a	.	.	4ff#	4a	8dd	8d
.	.	.	.	.	.	8d	8D
=57	=57	=57	=57	=57	=57	=57	=57
4ff#	4a	2.r	2.r	4ff#	4a	8g	8G
.	.	.	.	.	.	8d	8D
4gg	4b-	.	.	8gg	8b-	8G	8GG
.	.	.	.	8gg	8b-	8g	8G
4gg	4b-	.	.	8gg	8b-	8g	8G
.	.	.	.	16ff#	16a	8g	8G
.	.	.	.	16gg	16b-	.	.
=58	=58	=58	=58	=58	=58	=58	=58
8ee-	8cc	[2.dd	[2.dd	8ee-	8cc	8g	8G
16dd	16b-	.	.	16dd	16b-	8g	8G
16ee-	16cc	.	.	16ee-	16cc	.	.
4dd	4b-	.	.	8dd	8b-	8g	8G
.	.	.	.	8dd	8b-	8g	8G
4r	4r	.	.	8dd	8b-	8g	8G
.	.	.	.	16cc	16a	8g	8G
.	.	.	.	16dd	16b-	.	.
=59	=59	=59	=59	=59	=59	=59	=59
2r	2r	2.dd_	2.dd_	8cc	8a	8g	8G
.	.	.	.	16b-	16g	8g	8G
.	.	.	.	16cc	16a	.	.
.	.	.	.	8b-	8g	8g	8G
.	.	.	.	8gg	8b-	8g	8G
4gg	4b-	.	.	8gg	8b-	8g	8G
.	.	.	.	16ff#	16a	8g	8G
.	.	.	.	16gg	16b-	.	.
=60	=60	=60	=60	=60	=60	=60	=60
8ee-	8cc	2.dd_	2.dd_	8ee-	8cc	8g	8G
16dd	16b-	.	.	16dd	16b-	8g	8G
16ee-	16cc	.	.	16ee-	16cc	.	.
4dd	4b-	.	.	8dd	8b-	8g	8G
.	.	.	.	8dd	8b-	8g	8G
4r	4r	.	.	8dd	8b-	8g	8G
.	.	.	.	16cc	16a	8g	8G
.	.	.	.	16dd	16b-	.	.
=61	=61	=61	=61	=61	=61	=61	=61
2r	2r	2.dd]	2.dd]	8cc	8a	8g	8G
.	.	.	.	16b-	16g	8g	8G
.	.	.	.	16cc	16a	.	.
.	.	.	.	8b-	8g	8g	8G
.	.	.	.	8dd	8b-	8g	8G
4b-	4b-	.	.	8ee-	8b-	8g	8G
.	.	.	.	16dd	8b-	8g	8G
.	.	.	.	16ee-	.	.	.
=62	=62	=62	=62	=62	=62	=62	=62
2.gg	2.b	2dd	2dd	4.gg	4.b	4.d	8F
.	.	.	.	.	.	.	8F
.	.	.	.	.	.	.	8F
.	.	.	.	8b	8g	8d	8F
.	.	4r	4r	8b	8g	8d	8F
.	.	.	.	16a	8g	16c	8F
.	.	.	.	16b	.	16d	.
=63	=63	=63	=63	=63	=63	=63	=63
2.gg	2.cc	2.r	2.r	4.cc	4.g	4.e-	8E-
.	.	.	.	.	.	.	8E-
.	.	.	.	.	.	.	8E-
.	.	.	.	8cc	8g	8e-	8E-
.	.	.	.	8cc	8g	8e-	8E-
.	.	.	.	16b	8g	8e-	8E-
.	.	.	.	16cc	.	.	.
=64	=64	=64	=64	=64	=64	=64	=64
2.ff	2.a	4cc	4cc	4.ff	4.a	4.c	8E-
.	.	.	.	.	.	.	8E-
.	.	2r	2r	.	.	.	8E-
.	.	.	.	8a	8f	8c	8E-
.	.	.	.	8a	8f	8c	8E-
.	.	.	.	16g	8f	16B-	8E-
.	.	.	.	16a	.	16c	.
=65	=65	=65	=65	=65	=65	=65	=65
2.b-	2.b-	4cc	4cc	2.b-	8f	8d	8D
.	.	.	.	.	8d	8b-	8B-
.	.	2r	2r	.	8d	8b-	8B-
.	.	.	.	.	8c	8a	8A
.	.	.	.	.	8B-	8g	8G
.	.	.	.	.	8A	8f	8F
=66	=66	=66	=66	=66	=66	=66	=66
2.gg	2.gg	2.r	2.r	2.gg	8G	8e-	8E-
.	.	.	.	.	8g	8e-	8e-
.	.	.	.	.	8g	8e-	8e-
.	.	.	.	.	8f	8d	8d
.	.	.	.	.	8e-	8c	8c
.	.	.	.	.	8d	8B-	8B-
=67	=67	=67	=67	=67	=67	=67	=67
4ff	8cc	2.r	2.r	4ff	8c	4A	8A
.	8a	.	.	.	8A	.	8F
4ee-	8b-	.	.	4ee-	8B-	4F	8G
.	8cc	.	.	.	8c	.	8A
8.dd	4f	.	.	8.dd	[4d	4B-	8B-
.	.	.	.	.	.	.	8BB-
16gg	.	.	.	16gg	.	.	.
=68	=68	=68	=68	=68	=68	=68	=68
4gg	8dd	2.r	2.r	4gg	8d]	2G	8B
.	8b	.	.	.	8B	.	8G
4ff	8cc	.	.	4ff	8c	.	8A
.	8dd	.	.	.	8d	.	8B
8.ee	4g	.	.	8.ee	[4e	4c	8c
.	.	.	.	.	.	.	8C
16aa	.	.	.	16aa	.	.	.
=69	=69	=69	=69	=69	=69	=69	=69
4aa	8ee	2.r	2.r	4aa	8e]	2A	8c#
.	8cc#	.	.	.	8c#	.	8A
4gg	8dd	.	.	4gg	8d	.	8B
.	8ee	.	.	.	8e	.	8c#
8.ff	8a	.	.	8.ff	[4f	4d	8d
.	8f	.	.	.	.	.	8D
16aa	.	.	.	16aa	.	.	.
=70	=70	=70	=70	=70	=70	=70	=70
4.bb-	4f	2.r	2.r	4.bb-	4f]	2.G	8G
.	.	.	.	.	.	.	8G
.	8e	.	.	.	8e	.	8G
8gg	8g	.	.	8gg	8g	.	8G
8ee	4b-	.	.	8ee	4b-	.	8G
8dd	.	.	.	8dd	.	.	8G
=71	=71	=71	=71	=71	=71	=71	=71
8cc#	8a	2.r	2.r	8cc#	4a	4A	4A
8aa	8aa	.	.	8aa	.	.	.
8aa	8aa	.	.	8aa	2r	2r	2r
8gg	8gg	.	.	8gg	.	.	.
8ff	8ff	.	.	8ff	.	.	.
8ee	8ee	.	.	8ee	.	.	.
=72	=72	=72	=72	=72	=72	=72	=72
2.dd	2.dd	2.r	2.r	2.dd	8r	8r	8r
.	.	.	.	.	8ff	8dd	8d
.	.	.	.	.	8ff	8dd	8d
.	.	.	.	.	8ee	8cc	8c
.	.	.	.	.	8dd	8b-	8B-
.	.	.	.	.	8cc	8a	8A
=73	=73	=73	=73	=73	=73	=73	=73
2.bb-	2.dd	2.r	2.r	2.bb-	8b-	8g	8G
.	.	.	.	.	8b-	8g	8G
.	.	.	.	.	8b-	8g	8G
.	.	.	.	.	8a	8f	8F
.	.	.	.	.	8g	8e	8E
.	.	.	.	.	8f	8d	8D
=74	=74	=74	=74	=74	=74	=74	=74
[2.aa	2ee	[2.e	[2.e	4aa	16e	8c#	8C#
.	.	.	.	.	16a	.	.
.	.	.	.	.	16e	8c#	8C#
.	.	.	.	.	16a	.	.
.	.	.	.	8g	16e	8c#	8C#
.	.	.	.	.	16a	.	.
.	.	.	.	16f	16e	8c#	8C#
.	.	.	.	16g	16a	.	.
.	4ff	.	.	8.f	16f	8d	8D
.	.	.	.	.	16a	.	.
.	.	.	.	.	16f	8d	8D
.	.	.	.	16aa	16a	.	.
=75	=75	=75	=75	=75	=75	=75	=75
2.aa_	2cc#	2.e_	2.e_	4aa	16g	8e	8E
.	.	.	.	.	16a	.	.
.	.	.	.	.	16g	8e	8E
.	.	.	.	.	16a	.	.
.	.	.	.	8cc#	16g	8e	8E
.	.	.	.	.	16a	.	.
.	.	.	.	16b	16g	8e	8E
.	.	.	.	16cc#	16a	.	.
.	4dd	.	.	8.dd	16f	8f	8F
.	.	.	.	.	16a	.	.
.	.	.	.	.	16f	8f	8F
.	.	.	.	16aa	16a	.	.
=76	=76	=76	=76	=76	=76	=76	=76
2.aa_	2ee	2.e_	2.e_	4aa	16e	8c#	8C#
.	.	.	.	.	16a	.	.
.	.	.	.	.	16e	8c#	8C#
.	.	.	.	.	16a	.	.
.	.	.	.	8g	16e	8c#	8C#
.	.	.	.	.	16a	.	.
.	.	.	.	16f	16e	8c#	8C#
.	.	.	.	16g	16a	.	.
.	4ff	.	.	8.f	16f	8d	8D
.	.	.	.	.	16a	.	.
.	.	.	.	.	16f	8d	8D
.	.	.	.	16aa	16a	.	.
=77	=77	=77	=77	=77	=77	=77	=77
2.aa]	2cc#	2.e]	2.e]	4aa	16g	8e	8E
.	.	.	.	.	16a	.	.
.	.	.	.	.	16g	8e	8E
.	.	.	.	.	16a	.	.
.	.	.	.	8cc#	16g	8e	8E
.	.	.	.	.	16a	.	.
.	.	.	.	16b	16g	8e	8E
.	.	.	.	16cc#	16a	.	.
.	4dd	.	.	8.dd	8f	8f	8F
.	.	.	.	.	8d	8f	8F
.	.	.	.	16aa	.	.	.
=78	=78	=78	=78	=78	=78	=78	=78
2.gg#	2.b	2.r	2.r	2.gg#	2.b	8r	8r
.	.	.	.	.	.	8d	8f
.	.	.	.	.	.	8d	8f
.	.	.	.	.	.	8e	8e
.	.	.	.	.	.	8e	8e
.	.	.	.	.	.	8f	8d
=79	=79	=79	=79	=79	=79	=79	=79
8gg	8a	2.r	2.r	8gg	8a	2e	2.c#
8bb-	8gg	.	.	8bb-	8gg	.	.
8bb-	8gg	.	.	8bb-	8gg	.	.
8aa	8ff	.	.	8aa	8ff	.	.
8aa	8ff	.	.	8aa	8ff	4A	.
8gg	8ee	.	.	8gg	8ee	.	.
=80	=80	=80	=80	=80	=80	=80	=80
4ff	4ff	2.r	2.r	8ff	8ff	4d	8d
.	.	.	.	8d	8d	.	8D
4gg	4gg	.	.	8e	8e	4e	4E
.	.	.	.	8gg	8gg	.	.
4aa	4aa	.	.	8f	8f	4f	4F
.	.	.	.	8aa	8aa	.	.
=81	=81	=81	=81	=81	=81	=81	=81
4bb-	4bb-	2.r	2.r	8g	8g	4g	4G
.	.	.	.	8bb-	8bb-	.	.
4aa	4aa	.	.	8aa	8aa	4a	4A
.	.	.	.	8ddd	8ddd	.	.
4cc#	4cc#	.	.	8a	8a	4A	4AA
.	.	.	.	8ccc#	8ccc#	.	.
=82	=82	=82	=82	=82	=82	=82	=82
4dd	4dd	2.r	2.r	8ddd	4ddd	4d	4D
.	.	.	.	8dd	.	.	.
2r	2r	.	.	[2dd	8r	8r	8r
.	.	.	.	.	8f#	8a	8c
.	.	.	.	.	8f#	8a	8c
.	.	.	.	.	16e	8a	8c
.	.	.	.	.	16f#	.	.
=83	=83	=83	=83	=83	=83	=83	=83
2.r	2.r	2.r	2.r	8dd]	4g	8g	8B-
.	.	.	.	8dd	.	8b-	8B-
.	.	.	.	[2dd	8d	8b-	8B-
.	.	.	.	.	8g	8b-	8B-
.	.	.	.	.	8g	8b-	8B-
.	.	.	.	.	16f#	8b-	8B-
.	.	.	.	.	16g	.	.
=84	=84	=84	=84	=84	=84	=84	=84
2.r	2.r	2.r	2.r	8dd]	4a	8f#	8F#
.	.	.	.	8dd	.	8f#	8F#
.	.	.	.	[2dd	8d	8f#	8F#
.	.	.	.	.	8a	8f#	8F#
.	.	.	.	.	8a	8f#	8F#
.	.	.	.	.	16g	8f#	8F#
.	.	.	.	.	16a	.	.
=85	=85	=85	=85	=85	=85	=85	=85
2.r	2.r	2.r	2.r	8dd]	4b-	4g	4G
.	.	.	.	8ff#	.	.	.
.	.	.	.	8gg	2r	2r	2r
.	.	.	.	8aa	.	.	.
.	.	.	.	8bb-	.	.	.
.	.	.	.	8dd	.	.	.
=86	=86	=86	=86	=86	=86	=86	=86
2.r	2.r	2.r	2.r	8cc	4.r	4.r	4.r
.	.	.	.	8cc	.	.	.
.	.	.	.	[2cc	.	.	.
.	.	.	.	.	8e	8g	8B-
.	.	.	.	.	8e	8g	8B-
.	.	.	.	.	16d	8g	8B-
.	.	.	.	.	16e	.	.
=87	=87	=87	=87	=87	=87	=87	=87
2.r	2.r	2.r	2.r	8cc]	4f	8f	8A
.	.	.	.	8cc	.	8a	8A
.	.	.	.	[2cc	8c	8a	8A
.	.	.	.	.	8f	8a	8A
.	.	.	.	.	8f	8a	8A
.	.	.	.	.	16e	8a	8A
.	.	.	.	.	16f	.	.
=88	=88	=88	=88	=88	=88	=88	=88
2.r	2.r	2.r	2.r	8cc]	4g	8e	8E
.	.	.	.	8cc	.	8e	8E
.	.	.	.	2cc	8c	8e	8E
.	.	.	.	.	8g	8e	8E
.	.	.	.	.	8g	8e	8E
.	.	.	.	.	16f	8e	8E
.	.	.	.	.	16g	.	.
=89	=89	=89	=89	=89	=89	=89	=89
2.ff	2.f	2.cc	2.c	2.ff	2.f	8r	8r
.	.	.	.	.	.	8a	8F
.	.	.	.	.	.	8a	8F
.	.	.	.	.	.	8g	8E
.	.	.	.	.	.	8f	8D
.	.	.	.	.	.	8e	8C
=90	=90	=90	=90	=90	=90	=90	=90
2.ddd	2.dd	2.cc	2.c	2.ddd	2.dd	8d	8BB-
.	.	.	.	.	.	8dd	8B-
.	.	.	.	.	.	8dd	8B-
.	.	.	.	.	.	8cc	8A
.	.	.	.	.	.	8b-	8G
.	.	.	.	.	.	8a	8F
=91	=91	=91	=91	=91	=91	=91	=91
4ccc	4cc	2dd	2g	4ccc	4cc	8g	8E
.	.	.	.	.	.	8e	8C
4bb-	4b-	.	.	4bb-	4b-	8f	8D
.	.	.	.	.	.	8g	8E
4aa	8a	4ee	4cc	4aa	8a	8c	8F
.	8cc	.	.	.	8cc	8a	8A
=92	=92	=92	=92	=92	=92	=92	=92
8gg	8.dd	4ff	4dd	8gg	8.dd	8b-	8B-
16bb-	.	.	.	16bb-	.	8g	8G
16gg	16b-	.	.	16gg	16b-	.	.
4ff	4a	4ee	4cc	4ff	4a	8cc	8c
.	.	.	.	.	.	8b-	8B-
4ee	4g	4dd	4g	4ee	4g	8cc	8c
.	.	.	.	.	.	8c	8C
=93	=93	=93	=93	=93	=93	=93	=93
4ee	4g	4dd	4g	4ee	4g	8f	8F
.	.	.	.	.	.	8c	8C
4ff	4a	4ee	4cc	8ff	8a	8F	8FF
.	.	.	.	8ff	8a	8f	8F
4ff	4a	4r	4r	8ff	8a	8f	8F
.	.	.	.	16ee	16g	8f	8F
.	.	.	.	16ff	16a	.	.
=94	=94	=94	=94	=94	=94	=94	=94
8dd	8b-	2r	2r	8dd	8b-	8f	8F
16cc	16a	.	.	16cc	16a	8f	8F
16dd	16b-	.	.	16dd	16b-	.	.
4cc	4a	.	.	8cc	8a	8f	8F
.	.	.	.	8cc	8a	8f	8F
4r	4r	4gg	4ee	8cc	8a	8f	8F
.	.	.	.	16b-	16g	8f	8F
.	.	.	.	16cc	16a	.	.
=95	=95	=95	=95	=95	=95	=95	=95
2r	2r	4ff	4dd	8b-	8g	8f	8F
.	.	.	.	16a	16f	8f	8F
.	.	.	.	16b-	16g	.	.
.	.	4ee	4cc	8a	8f	8f	8F
.	.	.	.	8ff	8a	8f	8F
4ff	4a	4r	4r	8ff	8a	8f	8F
.	.	.	.	16ee	16g	8f	8F
.	.	.	.	16ff	16a	.	.
=96	=96	=96	=96	=96	=96	=96	=96
8dd	8b-	2r	2r	8dd	8b-	8f	8F
16cc	16a	.	.	16cc	16a	8f	8F
16dd	16b-	.	.	16dd	16b-	.	.
4cc	4a	.	.	8cc	8a	8f	8F
.	.	.	.	8cc	8a	8f	8F
4r	4r	4gg	4ee	8cc	8a	8f	8F
.	.	.	.	16b-	16g	8f	8F
.	.	.	.	16cc	16a	.	.
=97	=97	=97	=97	=97	=97	=97	=97
2r	2r	4ff	4dd	8b-	8g	8f	8F
.	.	.	.	16a	16f	8f	8F
.	.	.	.	16b-	16g	.	.
.	.	4ee	4cc	8a	8f	8f	8F
.	.	.	.	8f	8A	8F	8F
4ff	4a	4r	4r	8f	8A	8F	8F
.	.	.	.	16e	16G	8F	8F
.	.	.	.	16f	16A	.	.
=98	=98	=98	=98	=98	=98	=98	=98
2.dd	2.b-	2.cc	2.c	4.d	4.B-	8F	8F
.	.	.	.	.	.	8F	8F
.	.	.	.	.	.	8F	8F
.	.	.	.	8f	8d	8F	8F
.	.	.	.	8f	8d	8F	8F
.	.	.	.	16e	16c	8F	8F
.	.	.	.	16f	16B-	.	.
=99	=99	=99	=99	=99	=99	=99	=99
2.cc	2.a	4cc	4c	4.c	4.A	8F	8F
.	.	.	.	.	.	8F	8F
.	.	4ee	4cc	.	.	8F	8F
.	.	.	.	8f	8A	8F	8F
.	.	4r	4r	8a	8A	8F	8F
.	.	.	.	8cc	8A	8F	8F
=100	=100	=100	=100	=100	=100	=100	=100
2cc	2.g	2.r	2.r	2cc	4.G	8C	8E
.	.	.	.	.	.	8C	8E
.	.	.	.	.	.	8C	8E
.	.	.	.	.	8G	8C	8E
4b-	.	.	.	4b-	8G	8C	8E
.	.	.	.	.	8G	8C	8E
=101	=101	=101	=101	=101	=101	=101	=101
4b-	4g	2.r	2.r	4b-	4G	4.C	8F
.	.	.	.	.	.	.	8C
4a	4f	.	.	8a	8A	.	8FF
.	.	.	.	8f	8A	8F	8FF
4r	4r	.	.	8f	8A	8F	8FF
.	.	.	.	16e	16G	8F	8FF
.	.	.	.	16f	16A	.	.
=102	=102	=102	=102	=102	=102	=102	=102
2.r	2.r	2.r	2.r	4.d	4.B-	8F	8FF
.	.	.	.	.	.	8F	8FF
.	.	.	.	.	.	8F	8FF
.	.	.	.	8f	8d	8F	8FF
.	.	.	.	8f	8d	8F	8FF
.	.	.	.	16e	16c	8F	8FF
.	.	.	.	16f	16B-	.	.
=103	=103	=103	=103	=103	=103	=103	=103
2r	2r	2.r	2.r	4.c	4.A	8F	8FF
.	.	.	.	.	.	8f	8F
.	.	.	.	.	.	8f	8F
.	.	.	.	16a	16f	8f	8F
.	.	.	.	16b-	16g	.	.
4cc	4a	.	.	8cc	8a	8d	8F#
.	.	.	.	8cc	8a	8d	8F#
=104	=104	=104	=104	=104	=104	=104	=104
4cc	4a	2r	2r	4cc	4a	2d	8G
.	.	.	.	.	.	.	8G
8b	4g	.	.	8b	4g	.	8G
8gg	.	.	.	8gg	.	.	8G
8g	4g	4dd	4g	8g	4g	4c	8E
8b-	.	.	.	8b-	.	.	8E
=105	=105	=105	=105	=105	=105	=105	=105
4b-	4g	4dd	4g	4b-	4g	2c	8F
.	.	.	.	.	.	.	8F
8a	8f	4ee	4cc	8a	8a	.	8F
8ff	8ff	.	.	8ff	8ff	.	8F
8cc	8cc	4cc	4c	8cc	8cc	4f	8A
8cc#	8cc#	.	.	8cc#	8cc#	.	8A
=106	=106	=106	=106	=106	=106	=106	=106
8dd	8dd	4cc	4c	8dd	8dd	8f	8B-
8ff#	8ff#	.	.	8ff#	8ff#	8d	8B-
8gg	8gg	2r	2r	8gg	8gg	8d	8B-
8bb-	8bb-	.	.	8bb-	8bb-	8d	8B-
8dd	8dd	.	.	8dd	8dd	8d	8B-
8gg	8gg	.	.	8gg	8gg	8d	8B
=107	=107	=107	=107	=107	=107	=107	=107
2ee	2ee	4g	4g	2ee	2ee	8c	8c
.	.	.	.	.	.	8c	8C
.	.	2r	2r	.	.	8c	8c
.	.	.	.	.	.	8d	8d
4r	4r	.	.	4r	4r	8c	8c
.	.	.	.	.	.	8B-	8B-
=108	=108	=108	=108	=108	=108	=108	=108
8r	2.r	2.r	2.r	8r	2.r	8A	8A
8ccc	.	.	.	8ccc	.	8a	8A
8ccc	.	.	.	16ccc	.	8a	8A
.	.	.	.	16ddd	.	.	.
8bb-	.	.	.	16bb-	.	8g	8G
.	.	.	.	16ccc	.	.	.
8aa	.	.	.	16aa	.	8f	8F
.	.	.	.	16bb-	.	.	.
8gg	.	.	.	16gg	.	8e	8E
.	.	.	.	16aa	.	.	.
=109	=109	=109	=109	=109	=109	=109	=109
[2.ff	8r	2.cc	2.c	4ff	8r	8d	8D
.	8ff	.	.	.	8ff	8dd	8d
.	8ff	.	.	4f	16ff	8dd	8d
.	.	.	.	.	16gg	.	.
.	8ee	.	.	.	16ee	8cc	8c
.	.	.	.	.	16ff	.	.
.	8dd	.	.	[4ff	16dd	8b-	8B-
.	.	.	.	.	16ee	.	.
.	8cc	.	.	.	16cc	8a	8A
.	.	.	.	.	16dd	.	.
=110	=110	=110	=110	=110	=110	=110	=110
8ff]	[2.b-	2.r	2.r	8ff]	4b-	8g	8G
8bb-	.	.	.	8bb-	.	8g	8G
8bb-	.	.	.	16bb-	4B-	8g	8G
.	.	.	.	16ccc	.	.	.
8aa	.	.	.	16aa	.	8f	8F
.	.	.	.	16bb-	.	.	.
8gg	.	.	.	16gg	[4b-	8e	8E
.	.	.	.	16aa	.	.	.
8ff	.	.	.	16ff	.	8d	8D
.	.	.	.	16gg	.	.	.
=111	=111	=111	=111	=111	=111	=111	=111
[2.ee	8b-]	2.r	2.r	4ee	8b-]	8c	8C
.	8ee	.	.	.	8ee	8cc	8c
.	8ee	.	.	4e	16ee	8cc	8c
.	.	.	.	.	16ff	.	.
.	8dd	.	.	.	16dd	8b-	8B-
.	.	.	.	.	16ee	.	.
.	8cc	.	.	[4ee	16cc	8a	8A
.	.	.	.	.	16dd	.	.
.	8b-	.	.	.	16b-	8g	8G
.	.	.	.	.	16cc	.	.
=112	=112	=112	=112	=112	=112	=112	=112
8ee]	[2.a	2.r	2.r	8ee]	4a	8f	8F
8aa	.	.	.	8aa	.	8f	8f
8aa	.	.	.	16aa	4A	8f	8f
.	.	.	.	16bb-	.	.	.
8gg	.	.	.	16gg	.	8e	8e
.	.	.	.	16aa	.	.	.
8ff	.	.	.	16ff	[4a	8d	8d
.	.	.	.	16gg	.	.	.
8ee	.	.	.	16ee	.	8c	8c
.	.	.	.	16ff	.	.	.
=113	=113	=113	=113	=113	=113	=113	=113
[2.dd	8a]	2.r	2.r	4dd	8a]	8B-	8B-
.	8dd	.	.	.	8dd	8b-	8B-
.	8dd	.	.	4d	16dd	8b-	8B-
.	.	.	.	.	16ee	.	.
.	8cc	.	.	.	16cc	8a	8A
.	.	.	.	.	16dd	.	.
.	8b-	.	.	[4dd	16b-	8g	8G
.	.	.	.	.	16cc	.	.
.	8a	.	.	.	16a	8f	8F
.	.	.	.	.	16b-	.	.
=114	=114	=114	=114	=114	=114	=114	=114
8dd]	8g	4r	4r	8dd]	8g	4.e	4.E
8gg	8gg	.	.	8gg	8gg	.	.
16gg	16gg	2dd	2g	16gg	16gg	.	.
16ff	16ff	.	.	16ff	16ff	.	.
16ee	16ee	.	.	16ee	16ee	8e	8C
16dd	16dd	.	.	16dd	16dd	.	.
8cc	8cc	.	.	8cc	8cc	8f	8D
8b-	8b-	.	.	8b-	8b-	8g	8E
=115	=115	=115	=115	=115	=115	=115	=115
8a	8a	4ee	4cc	8a	8a	4c	4F
8ccc	8ccc	.	.	8ccc	8ccc	.	.
16ccc	16ccc	2cc	2c	16ccc	16ccc	8r	8r
16bb-	16bb-	.	.	16bb-	16bb-	.	.
16aa	16aa	.	.	16aa	16aa	8f	8F
16gg	16gg	.	.	16gg	16gg	.	.
8ff	8ff	.	.	8ff	8ff	8g	8G
8ee-	8ee-	.	.	8ee-	8ee-	8a	8A
=116	=116	=116	=116	=116	=116	=116	=116
4dd	4dd	4cc	4c	4dd	4dd	8b-	8B-
.	.	.	.	.	.	8b-	8B-
2r	2r	2r	2r	4ddd	4ff	8b-	8B-
.	.	.	.	.	.	8b-	8B-
.	.	.	.	4ddd	4ff	8b-	8B-
.	.	.	.	.	.	8b-	8B-
=117	=117	=117	=117	=117	=117	=117	=117
2.r	2.r	2.r	2.r	[2.ddd	[2.ff	4b	4B
.	.	.	.	.	.	2r	2r
=118	=118	=118	=118	=118	=118	=118	=118
2.r	2.r	2.r	2.r	2ddd]	2ff]	2.r	2.r
.	.	.	.	4ff	4dd	.	.
=119	=119	=119	=119	=119	=119	=119	=119
2.r	2.r	2.r	2.r	2.ff	[2.g	[2.c	2.c
=120	=120	=120	=120	=120	=120	=120	=120
2.r	2.r	2.r	2.r	4ee	4g]	4c]	4C
.	.	.	.	2r	2r	2r	2r
=121	=121	=121	=121	=121	=121	=121	=121
4ff	4a	4cc	4e	4a 4ff	4ff 4a	4c	4F
2r	2r	2r	2r	16ff	2r	2r	2r
.	.	.	.	16gg	.	.	.
.	.	.	.	16ff	.	.	.
.	.	.	.	16ee	.	.	.
.	.	.	.	16ff	.	.	.
.	.	.	.	16cc	.	.	.
.	.	.	.	16dd	.	.	.
.	.	.	.	16ee	.	.	.
=122	=122	=122	=122	=122	=122	=122	=122
4ff	4a	4cc	4e	4ff	4a 4ff	4c	4F
2r	2r	2r	2r	16ff	2r	2r	2r
.	.	.	.	16gg	.	.	.
.	.	.	.	16ff	.	.	.
.	.	.	.	16ee	.	.	.
.	.	.	.	16ff	.	.	.
.	.	.	.	16cc	.	.	.
.	.	.	.	16dd	.	.	.
.	.	.	.	16ee	.	.	.
=123	=123	=123	=123	=123	=123	=123	=123
4ff	4a	4cc	4e	16ff	16f	16f	2.r
.	.	.	.	16cc	16c	16c	.
.	.	.	.	16dd	16d	16d	.
.	.	.	.	16ee	16e	16e	.
4ff	4a	4cc	4e	16ff	16f	16f	.
.	.	.	.	16cc	16c	16c	.
.	.	.	.	16dd	16d	16d	.
.	.	.	.	16ee	16e	16e	.
4ff	4a	4cc	4e	16ff	16f	16f	.
.	.	.	.	16cc	16c	16c	.
.	.	.	.	16dd	16d	16d	.
.	.	.	.	16ee	16e	16e	.
=124	=124	=124	=124	=124	=124	=124	=124
4ff	4f	4cc	4cc	16ff	16f	16f	2.r
.	.	.	.	16ee	16e	16e	.
.	.	.	.	16ff	16f	16f	.
.	.	.	.	16gg	16g	16g	.
4aa	4a	4ee	4ee	16aa	16a	16a	.
.	.	.	.	16gg	16g	16g	.
.	.	.	.	16aa	16a	16a	.
.	.	.	.	16bb-	16b-	16b-	.
4ccc	4cc	4gg	4gg	4ccc	4cc	4cc	.
=125	=125	=125	=125	=125	=125	=125	=125
4dd	4dd	2.r	2.r	8b-	8b-	4b-	4B-
.	.	.	.	8ddd	8ddd	.	.
4b-	4b-	.	.	8g	8g	4g	4G
.	.	.	.	8bb-	8bb-	.	.
4g	4g	.	.	8e	8e	4e	4E
.	.	.	.	8gg	8gg	.	.
=126	=126	=126	=126	=126	=126	=126	=126
4e	4e	2dd	2g	8c	8c	4c	4C
.	.	.	.	8ee	8ee	.	.
4bb-	4cc	.	.	8cc	8cc	4e	4E
.	.	.	.	8bb-	8bb-	.	.
4aa	4cc	4ee	4cc	8aa	8aa	4f	4F
.	.	.	.	8ff	8ff	.	.
=127	=127	=127	=127	=127	=127	=127	=127
4gg	4b-	4ff	4dd	8dd	8dd	8f	8B-
.	.	.	.	16bb-	16bb-	16dd	8B-
.	.	.	.	16gg	16gg	16b-	.
4ff	4a	4ee	4cc	4ff	4ff	4a	8c
.	.	.	.	.	.	.	8c
4ee	4g	4dd	4g	4ee	4ee	4g	8C
.	.	.	.	.	.	.	8C
=128	=128	=128	=128	=128	=128	=128	=128
4ff	4f	4ee	4cc	8f	8f	4f	4F
.	.	.	.	8aa	8aa	.	.
4f	4f	2r	2r	8d	8d	4d	4D
.	.	.	.	8ff	8ff	.	.
4d	4d	.	.	8B-	8B-	4B-	4BB-
.	.	.	.	8dd	8dd	.	.
=129	=129	=129	=129	=129	=129	=129	=129
4b-	4b-	2.r	2.r	8g	8g	4g	4G
.	.	.	.	8bb-	8bb-	.	.
4g	4g	.	.	8e	8e	4e	4E
.	.	.	.	8gg	8gg	.	.
4e	4e	.	.	8c	8c	4c	4C
.	.	.	.	8ee	8ee	.	.
=130	=130	=130	=130	=130	=130	=130	=130
4cc	4cc	2.r	2.r	8cc	8a	4a	4A
.	.	.	.	8ccc	8ccc	.	.
4a	4a	.	.	8f	8f	4f	4F
.	.	.	.	8aa	8aa	.	.
4f	4f	.	.	8d	8d	4d	4D
.	.	.	.	8ff	8ff	.	.
=131	=131	=131	=131	=131	=131	=131	=131
4dd	4dd	2.r	2.r	8b-	8b-	4b-	4B-
.	.	.	.	8ddd	8ddd	.	.
4b-	4b-	.	.	8g	8g	4g	4G
.	.	.	.	8bb-	8bb-	.	.
4g	4g	.	.	8e	8e	4e	4E
.	.	.	.	8gg	8gg	.	.
=132	=132	=132	=132	=132	=132	=132	=132
4e	4e	2dd	2g	8c	8c	4c	4C
.	.	.	.	8ee	8ee	.	.
4bb-	4cc	.	.	8cc	8cc	4e	4E
.	.	.	.	8bb-	8bb-	.	.
4aa	4cc	4ee	4cc	8aa	8aa	4f	4F
.	.	.	.	8ff	8ff	.	.
=133	=133	=133	=133	=133	=133	=133	=133
4gg	4b-	4ff	4dd	8dd	8dd	8f	8B-
.	.	.	.	16bb-	16bb-	16dd	8B-
.	.	.	.	16gg	16gg	16b-	.
4ff	4a	4ee	4cc	4ff	4ff	4a	8c
.	.	.	.	.	.	.	8c
4ee	4g	4dd	4g	4ee	4ee	4g	8C
.	.	.	.	.	.	.	8C
=134	=134	=134	=134	=134	=134	=134	=134
4ee	4g	4dd	4g	4ee	4ee	4g	8F
.	.	.	.	.	.	.	8F
8ff	8a	4ee	4cc	8ff	8ff	8a	8F
8cc	8a	.	.	4.r	8cc	8a	8F
8cc	8a	4cc	4c	.	8cc	8a	8F
16b-	16g	.	.	.	16b-	16g	8F
16cc	16a	.	.	.	16cc	16a	.
=135	=135	=135	=135	=135	=135	=135	=135
4dd	4b-	[2.cc	[2.c	4.r	4dd	4b-	8F
.	.	.	.	.	.	.	8F
4b-	4d	.	.	.	4b-	4d	8F
.	.	.	.	8bb-	.	.	8F
4r	4r	.	.	16aa	4b-	4g	8F
.	.	.	.	16gg	.	.	.
.	.	.	.	16ff	.	.	8F
.	.	.	.	16ee	.	.	.
=136	=136	=136	=136	=136	=136	=136	=136
4.r	4.r	2.cc_	2.c_	4ff	4.a	4f	8F
.	.	.	.	.	.	.	8F
.	.	.	.	8cc	.	8a	8F
8cc	8a	.	.	4.r	8cc	8a	8F
8cc	8a	.	.	.	8cc	8a	8F
16b-	16g	.	.	.	16b-	16g	8F
16cc	16a	.	.	.	16cc	16a	.
=137	=137	=137	=137	=137	=137	=137	=137
4dd	4b-	2.cc_	2.c_	4.r	4dd	4b-	8F
.	.	.	.	.	.	.	8F
4b-	4d	.	.	.	4b-	4d	8F
.	.	.	.	8bb-	.	.	8F
4ee	4b-	.	.	16aa	4b-	4g	8F
.	.	.	.	16gg	.	.	.
.	.	.	.	16ff	.	.	8F
.	.	.	.	16ee	.	.	.
=138	=138	=138	=138	=138	=138	=138	=138
4ff	4a	4cc]	4c]	4ff	4a	4f	8F
.	.	.	.	.	.	.	8FF
4ff	4a	4cc	4c	4a 4ff	4ff 4a	4c	8AA
.	.	.	.	.	.	.	8C
4ff	4a	4cc	4c	4ff 4a	4ff 4a	4c	8F
.	.	.	.	.	.	.	16C
.	.	.	.	.	.	.	16AA
=139	=139	=139	=139	=139	=139	=139	=139
4ff	4a	4cc	4c	4ff 4a	4ff 4a	4A	4FF
2r	2r	2r	2r	2r	2r	2r	8c
.	.	.	.	.	.	.	8B-
.	.	.	.	.	.	.	8A
.	.	.	.	.	.	.	8G
=140	=140	=140	=140	=140	=140	=140	=140
4ff	4a	4cc	4c	4ff 4a	4ff 4a	4A	4FF
2r	2r	2r	2r	2r	2r	2r	2r
==	==	==	==	==	==	==	==
*-	*-	*-	*-	*-	*-	*-	*-
!!!RWG1: This file contains only pitch and duration data.
!!!RWG2: Transposing instruments are not transposed.
!!!RWG3: Spines may have incompatible meters.
!!!RWG4: Durations of rests and tied notes may be interpreted.
!!!RWG: Key is interpreted using the Humdrum key tool.
!!!AFT: stage1 
!!!END: 2000/12/13
!!format changes:
!!content changes:
!!public access: complete
!!!KEY: 3125786961
!!!EMD: Converted from MuseData to Humdrum Dec 16, 2000, by Andreas Kornstaedt using muse2kern.
